X:107
M:C
L:1/8
Q:1/4=140
K:G
c|B>AG>F [G,2E2] E>F|G>AB>^c dBBg/f/|eBB^G (A2 A)B/c/|
eBB^G (A2 A)B/c/|B>AG>F [G,3E3]:|
|:B|e>f g>f eBB~^d|ef/g/ f>^d e2 ^dc|B>GA>G g>fef/g/|eBB^G A2 AB/c/|

